X:0510
T:The Whirlie-Wha.
M:6/8
L:1/8
Q:3/8=108
I: :: ::
Z:Jack Campin * www.campin.me.uk * 2009
K:D
 A    |       A2d  d>cd|e<cA TA2G |F>GF E<dc| d3- d2
 A    |       A2d  d>cd|e<cA TA2G |F>GF E<dc| d3  d2::
 A    |       d2a  aTfd|Bgf   g>ec|d>ed d<af|Tf3 He2
(a/g/)|"_For."f>ed d>ef|e<cA TA2G |F>GF E<dc| d3  d2:|
<end>
<start>
